app/client/src/assets/icons/blueprintjs/16px/drawer-right-filled.svg

<?xml version="1.0" encoding="UTF-8"?>
<svg width="16px" height="16px" viewBox="0 0 16 16" version="1.1" xmlns="http://www.w3.org/2000/svg" xmlns:xlink="http://www.w3.org/1999/xlink">
    <title>drawer-right-filled</title>
    <g id="drawer-right-filled" stroke="none" stroke-width="1" fill="none" fill-rule="evenodd">
        <path d="M9,0 L15,0 C15.5522847,0 16,0.44771525 16,1 L16,15 C16,15.5522847 15.5522847,16 15,16 L9,16 C8.44771525,16 8,15.5522847 8,15 L8,1 C8,0.44771525 8.44771525,0 9,0 Z M8.00000005,7 L3.41000002,7 L4.70000003,5.71000006 C4.89000003,5.53000006 5.00000005,5.28000006 5.00000005,5 C5.00000005,4.45000005 4.55000003,4 4.00000005,4 C3.72000002,4 3.47000002,4.11000005 3.29000002,4.29000005 L0.290000002,7.29000007 C0.110000001,7.47000007 4.99999544e-08,7.72000007 4.99999544e-08,8 C4.99999544e-08,8.28000008 0.110000001,8.53000008 0.290000002,8.71000008 L3.29000002,11.7100001 C3.47000002,11.8900001 3.72000002,12 4.00000005,12 C4.55000003,12 5.00000005,11.5500001 5.00000005,11 C5.00000005,10.7200001 4.89000003,10.4700001 4.71000003,10.2900001 L3.41000002,9 L8.00000005,9 L8.00000005,7 Z" id="Shape" fill="#000000" fill-rule="nonzero"></path>
    </g>
</svg>

<svg xmlns="http://www.w3.org/2000/svg" width="16" height="16"><path fill-rule="nonzero" d="M9 0h6a1 1 0 0 1 1 1v14a1 1 0 0 1-1 1H9a1 1 0 0 1-1-1V1a1 1 0 0 1 1-1ZM8 7H3.41L4.7 5.71c.19-.18.3-.43.3-.71a1.003 1.003 0 0 0-1.71-.71l-3 3C.11 7.47 0 7.72 0 8c0 .28.11.53.29.71l3 3a1.003 1.003 0 0 0 1.42-1.42L3.41 9H8V7Z"/></svg>
